!!!OTL: Des M&uuml;llers Töchterlein (44), S. 143
!!!id: T0175
**kern
*clefG2
*k[f#]
*G:
{8g
8a
=1
4b
8g
8g
4g}
=2
{8a
8b
=3
4a
8g
8f#
4e}
=4
{8f#
8g
=5
2a}
4r
=6
{8g
8a
=7
4b
8g
8g
4g}
=8
{8a
8b
=9
4a
8g
8f#
4e}
=10
{8f#
8g
=11
8a
8g
8f#
8e
4d}
=12
{8g
8f#
=13
4e
8f#
8e
4d}
==
*-
!!!minrhy: 8
!!!meters: 4/4 ]  ZZ[7
!!!cut: Des M&uuml;llers Töchterlein (44), S. 143
!!!reg: Luxemburg
!!!trd: Singendes Volk, Esch-Alzette 1937 posth.
!!!rhy1: XX  X_XXX_
!!!rhy2: XX  X_XXX_
!!!key: T0175  08  G 4/4 ]  ZZ[7
!!!mod: SECHSTONSKALA DUR ?]  AMBITUS[6
!!!kad: 1-621-6-5-5
!!!akz: 31_2-6_2_31_2-6_2-5_-6-5_
!!!fot: 'a__b__c__a__b__d__e__
!!!for: 'a__a__b__a__a__c__a__
!!!fok: '^__\__/__^__\__^d_\__
!! PHRAS[AUFTAKTIG]
!!!fkt: Liebeslieder
!!!bem: Esch-Alz., Monnerich, hhh Dominik M&uuml;ller, 1.6.1916
!! THILL, Mathias:
!! PR[38] 2K[0] 2G[3] 3K[3] 3G[13] 4A[9] 4Ü[0] 5A[0] 6K[0] 6G[0]
!! 7K[0] 7G[0] 8A[0] MEHR[0] SI[28] ABS[32] SR[3] SP[25]
!! ST[8] 2k[3] 2g[19] 3k[6] 3g[6] 4d[0] 4ü[0] 5d[0] 6k[0] 6g[0]
!! 7k[0] 7g[0] 8d[0] mehr[0] si[34] dm[-6] sr[22] sp[13]
!! 1F[29] 2F[66] 3F[6] 4F[0] LF[0] 2P[0] 3P[0] 4P[0] TRI[0] DF[3] AB[35]
!! TF[0] U3K[0] U3[0] U4[0] U4Ü[0] U5[3] U6K[0] U6[0] U7K[0] U7[0]
!! N1[21] N2K[0] N2[21] N3K[0] N3[21] N4[9] N4Ü[0] N5[18] N6K[0] N6[3]
!!!n7k: 0] N7[3] O1[0] O2K[0] O2[0] O3K[0] O3[0] HÖ[0
!!!RNB: symbol: &uuml;  = u umlaut (UTF-8: Ã¼)
